app/images/vetores/materiais/article.svg

<?xml version="1.0" encoding="UTF-8" standalone="no"?>
<svg width="76px" height="89px" viewBox="0 0 76 89" version="1.1" xmlns="http://www.w3.org/2000/svg" xmlns:xlink="http://www.w3.org/1999/xlink" xmlns:sketch="http://www.bohemiancoding.com/sketch/ns">
    <!-- Generator: Sketch 3.5.2 (25235) - http://www.bohemiancoding.com/sketch -->
    <title>article</title>
    <desc>Created with Sketch.</desc>
    <defs></defs>
    <g id="Page-1" stroke="none" stroke-width="1" fill="none" fill-rule="evenodd" sketch:type="MSPage">
        <g id="Plataforma" sketch:type="MSArtboardGroup" transform="translate(-270.000000, -2761.000000)">
            <g id="conteudos" sketch:type="MSLayerGroup" transform="translate(0.000000, 2460.000000)">
                <g id="content" transform="translate(252.000000, 298.000000)" sketch:type="MSShapeGroup">
                    <g id="Group-6" transform="translate(0.000000, 3.000000)">
                        <g id="article" transform="translate(18.000000, 0.000000)">
                            <g id="Page-1">
                                <g>
                                    <g id="article">
                                        <g id="Group-Copy-2">
                                            <path d="M48.897872,0 L4.41927637,0 C2.14482214,0 0,2.14259259 0,4.30645162 L0,84.6935484 C0,84.7927615 0.00450890353,84.8919298 0.013332472,84.990849 C0.196952928,87.0493791 2.24910598,89 4.41927637,89 L71.5807236,89 C73.8551779,89 76,86.8574074 76,84.6935484 L76,26.644049 L48.897872,26.644049 L48.897872,0 L48.897872,0 Z" id="Fill-9" fill="#4B9BA9"></path>
                                            <path d="M12.8043478,64.8958333 C12.8043478,63.8718054 13.6218266,63.0416667 14.6566028,63.0416667 L62.9955711,63.0416667 C64.0185433,63.0416667 64.8478261,63.864666 64.8478261,64.8958333 C64.8478261,65.9198612 64.0303473,66.75 62.9955711,66.75 L14.6566028,66.75 C13.6336306,66.75 12.8043478,65.9270007 12.8043478,64.8958333 L12.8043478,64.8958333 Z M12.8043478,72.3125 C12.8043478,71.2884721 13.6218266,70.4583333 14.6566028,70.4583333 L62.9955711,70.4583333 C64.0185433,70.4583333 64.8478261,71.2813326 64.8478261,72.3125 C64.8478261,73.3365279 64.0303473,74.1666667 62.9955711,74.1666667 L14.6566028,74.1666667 C13.6336306,74.1666667 12.8043478,73.3436674 12.8043478,72.3125 L12.8043478,72.3125 Z M12.8043478,57.4791667 C12.8043478,56.4551388 13.6218266,55.625 14.6566028,55.625 L62.9955711,55.625 C64.0185433,55.625 64.8478261,56.4479993 64.8478261,57.4791667 C64.8478261,58.5031946 64.0303473,59.3333333 62.9955711,59.3333333 L14.6566028,59.3333333 C13.6336306,59.3333333 12.8043478,58.510334 12.8043478,57.4791667 L12.8043478,57.4791667 Z" id="Fill-11-Copy-2" fill="#65BCCB"></path>
                                            <path d="M48.9644268,0 L76,26.7 L48.9644268,26.7 L48.9644268,0 L48.9644268,0 Z" id="Rectangle-22-Copy" fill="#65BBCB"></path>
                                        </g>
                                        <path d="M19.2963955,40.8508288 C19.2062082,41.1126541 19.1272954,41.3472024 19.0596549,41.5544807 C18.9920144,41.7617589 18.9243749,41.9526703 18.8567344,42.1272204 C18.7890939,42.3017707 18.7214544,42.4708636 18.6538139,42.6345045 C18.5861734,42.7981451 18.5128972,42.9726928 18.4339832,43.1581523 L21.1395903,43.0272404 L21.1395903,44.5 L14.6630435,44.5 L14.6630435,43.3872483 C15.1816208,43.3872483 15.6043676,43.286338 15.9312968,43.0845143 C16.2582259,42.8826907 16.5344206,42.5963236 16.7598889,42.2254046 C16.9853573,41.8544854 17.1910941,41.4126619 17.3771056,40.8999208 C17.5631169,40.3871796 17.7744904,39.8199002 18.0112322,39.1980651 L25.1472707,20.3958333 L25.9758629,20.3958333 L33.7037529,39.4762531 C33.8052135,39.7053501 33.9094912,39.9808081 34.0165887,40.3026349 C34.1236861,40.6244619 34.2251454,40.9544658 34.3209694,41.2926567 C34.4167935,41.6308477 34.4900697,41.9635789 34.5408,42.2908605 C34.5915304,42.618142 34.6112586,42.9072364 34.5999852,43.1581523 L36.9673913,43.0272404 L36.9673913,44.5 L29.0365808,44.5 L29.0365808,43.3872483 C29.6791656,43.3763389 30.1526421,43.2617919 30.4570245,43.0436043 C30.7614068,42.8254165 30.953052,42.5581406 31.0319659,42.2417686 C31.1108799,41.9253963 31.1108799,41.5872105 31.0319659,41.2272007 C30.953052,40.8671911 30.8515927,40.5290051 30.7275851,40.212633 L29.510062,37.0707456 L20.4970087,37.2671136 C20.2489934,37.9544048 20.0291651,38.5844124 19.8375169,39.1571551 C19.6458688,39.729898 19.4654967,40.2944502 19.2963955,40.8508288 L19.2963955,40.8508288 L19.2963955,40.8508288 Z M23.4900864,29.0851154 C22.9602356,30.5251542 22.4952141,31.7933513 22.0950078,32.8897446 C21.6948014,33.9861378 21.3368758,34.9652405 21.02122,35.8270819 L29.0365808,35.8270819 L26.5677144,29.4123953 L25.0119902,25.2886683 L24.9443501,25.2886683 L23.4900864,29.0851154 L23.4900864,29.0851154 Z" id="A" fill="#FFFFFF"></path>
                                    </g>
                                </g>
                            </g>
                        </g>
                    </g>
                </g>
            </g>
        </g>
    </g>
</svg>

<svg width="76" height="89" viewBox="0 0 76 89" xmlns="http://www.w3.org/2000/svg"><title>article</title><g fill="none" fill-rule="evenodd"><path d="M48.898 0H4.419C2.145 0 0 2.143 0 4.306v80.388c0 .099.005.198.013.297C.197 87.049 2.25 89 4.42 89h67.162C73.855 89 76 86.857 76 84.694v-58.05H48.898V0z" fill="#4B9BA9"/><path d="M12.804 64.896c0-1.024.818-1.854 1.853-1.854h48.339c1.023 0 1.852.823 1.852 1.854a1.846 1.846 0 0 1-1.852 1.854h-48.34a1.849 1.849 0 0 1-1.852-1.854zm0 7.416c0-1.024.818-1.854 1.853-1.854h48.339c1.023 0 1.852.823 1.852 1.855a1.846 1.846 0 0 1-1.852 1.854h-48.34a1.849 1.849 0 0 1-1.852-1.855zm0-14.833c0-1.024.818-1.854 1.853-1.854h48.339c1.023 0 1.852.823 1.852 1.854a1.846 1.846 0 0 1-1.852 1.854h-48.34a1.849 1.849 0 0 1-1.852-1.854z" fill="#65BCCB"/><path d="M48.964 0L76 26.7H48.964V0z" fill="#65BBCB"/><path d="M19.296 40.85c-.09.263-.169.497-.236.704-.068.208-.136.399-.203.573a31.63 31.63 0 0 1-.203.508c-.068.163-.141.338-.22.523l2.706-.13V44.5h-6.477v-1.113c.519 0 .941-.1 1.268-.302.327-.202.603-.489.829-.86.225-.37.431-.812.617-1.325.186-.513.397-1.08.634-1.702l7.136-18.802h.829l7.728 19.08c.101.23.205.505.313.827.107.321.208.651.304.99.096.338.17.67.22.998.05.327.07.616.059.867l2.367-.13V44.5h-7.93v-1.113c.642-.01 1.116-.125 1.42-.343.304-.219.496-.486.575-.802a2.201 2.201 0 0 0 0-1.015 6.718 6.718 0 0 0-.304-1.014L29.51 37.07l-9.013.196a86.083 86.083 0 0 0-.66 1.89 63.874 63.874 0 0 0-.54 1.694zm4.194-11.765c-.53 1.44-.995 2.708-1.395 3.805l-1.074 2.937h8.016l-2.47-6.415-1.555-4.123h-.068l-1.454 3.796z" fill="#FFF"/></g></svg>
